X:211
T:Reel 211
L:1/8
M: 4/4
K: G Major
dgged2Bd|(3efgdBcAAB|dG3BGGB|c2AcBGG2|dG3egde|(3dedBGABcA|(3BcdgedGBd|cAdBcAAB|(3ABcdgeAAe|G3A(3BcdAc|B3GABcd|(3efgagfdcA|(3Bcdefg2ag|eAA2cdAc|BGG2(3Bcdeg|fdcAAGG2|.abc